X:1932
T:Bob och Lauras schottis
R:Schottis
C:Bruce Sagan
Z:ABC-transkribering av Bruce Sagan
M:C
L:1/8
K:Gmix
"G" G2 (GA) B2 G2 | "C" c>B c<e "D" d4 | "G" g3 (f "C"e>)f "A" g<e | "D" ^f2 d2 d>c B<A |
"G" G2 (GA) B2 G2 | "A" ^c>B c<e "D" d4 | "A" ^c2 cd e2 c2 | "D" d4 d4 :|
|: "G/Bb" d4 (d2 g2) | "F" f>e f<g "G/D" d4 | "G" (d3 c) B>c d<f | "C" e>d e<g "D" ^f2 (3(def) |
"G/Bb" g4 (d2 g2) | "F/C" f>e e<c "G" d4 | "G" d2 cB "F" A>G F<A | "G" G4 G4 :|
(:musicend:)
(:music:)
